build/images/last-section/Vectorls-icon-3.svg

<svg width="84" height="54" viewBox="0 0 84 54" fill="none" xmlns="http://www.w3.org/2000/svg">
<path d="M42.0345 31.9743H35.3744C35.3744 31.9743 31.61 31.6732 29.5309 34.4183C27.4518 37.1634 18.4694 48.9836 18.4694 48.9836C18.4694 48.9836 13.1529 56.3618 4.0721 47.4894C4.0721 47.4894 0.869477 44.0841 2.42735 37.592C3.98523 31.0999 5.06821 19.0828 5.06821 19.0828C5.06821 19.0828 5.17825 11.6872 8.31137 8.14291C10.958 5.15456 14.9309 1.85928 22.2859 2.57162C23.6559 2.70786 24.9931 3.07398 26.2414 3.6546C28.419 4.67388 31.9054 6.55028 32.9131 8.66413H42.0402" stroke="#0B8E42" stroke-width="3" stroke-linecap="round" stroke-linejoin="round"/>
<path d="M41.965 31.9743H48.6251C48.6251 31.9743 52.3894 31.6732 54.4685 34.4183C56.5476 37.1634 65.5358 48.9835 65.5358 48.9835C65.5358 48.9835 70.8523 56.3617 79.9331 47.4894C79.9331 47.4894 83.13 44.084 81.5721 37.5919C80.0142 31.0998 78.937 19.1001 78.937 19.1001C78.937 19.1001 78.8328 11.7046 75.6939 8.16024C73.0472 5.1719 69.0801 1.87662 61.7193 2.58895C60.351 2.72408 59.0155 3.09027 57.7696 3.67194C55.5863 4.69122 52.0999 6.56762 51.0922 8.68146H41.965" stroke="#0B8E42" stroke-width="3" stroke-linecap="round" stroke-linejoin="round"/>
<path d="M20.5428 13.6794V24.2834" stroke="#0B8E42" stroke-width="3" stroke-linecap="round" stroke-linejoin="round"/>
<path d="M15.1451 18.9092H26.1487" stroke="#0B8E42" stroke-width="3" stroke-linecap="round" stroke-linejoin="round"/>
<path d="M40.048 17.4265H36.4863V20.3512H40.048V17.4265Z" fill="#0B8E42"/>
<path d="M47.4725 17.4265H43.9108V20.3512H47.4725V17.4265Z" fill="#0B8E42"/>
<path d="M56.4782 21.2257C57.7672 21.2257 58.8121 20.1808 58.8121 18.8918C58.8121 17.6028 57.7672 16.5579 56.4782 16.5579C55.1892 16.5579 54.1443 17.6028 54.1443 18.8918C54.1443 20.1808 55.1892 21.2257 56.4782 21.2257Z" fill="#0B8E42"/>
<path d="M69.7982 21.2257C71.0872 21.2257 72.1322 20.1808 72.1322 18.8918C72.1322 17.6028 71.0872 16.5579 69.7982 16.5579C68.5093 16.5579 67.4643 17.6028 67.4643 18.8918C67.4643 20.1808 68.5093 21.2257 69.7982 21.2257Z" fill="#0B8E42"/>
<path d="M63.1208 14.577C64.4098 14.577 65.4547 13.5321 65.4547 12.2431C65.4547 10.9541 64.4098 9.90918 63.1208 9.90918C61.8318 9.90918 60.7869 10.9541 60.7869 12.2431C60.7869 13.5321 61.8318 14.577 63.1208 14.577Z" fill="#0B8E42"/>
<path d="M63.1208 27.8971C64.4098 27.8971 65.4547 26.8522 65.4547 25.5632C65.4547 24.2742 64.4098 23.2292 63.1208 23.2292C61.8318 23.2292 60.7869 24.2742 60.7869 25.5632C60.7869 26.8522 61.8318 27.8971 63.1208 27.8971Z" fill="#0B8E42"/>
</svg>

<svg width="84" height="54" fill="none" xmlns="http://www.w3.org/2000/svg"><path d="M42.035 31.974h-6.66s-3.765-.3-5.844 2.444c-2.08 2.745-11.062 14.566-11.062 14.566s-5.316 7.378-14.397-1.495c0 0-3.203-3.405-1.645-9.897 1.558-6.492 2.641-18.51 2.641-18.51s.11-7.395 3.243-10.94c2.647-2.987 6.62-6.283 13.975-5.57 1.37.136 2.707.502 3.955 1.083 2.178 1.019 5.664 2.895 6.672 5.01h9.127" stroke="#0B8E42" stroke-width="3" stroke-linecap="round" stroke-linejoin="round"/><path d="M41.965 31.974h6.66s3.764-.3 5.843 2.444c2.08 2.745 11.068 14.566 11.068 14.566s5.316 7.378 14.397-1.495c0 0 3.197-3.405 1.64-9.897C80.013 31.1 78.936 19.1 78.936 19.1s-.104-7.395-3.243-10.94c-2.646-2.988-6.613-6.283-13.974-5.57a12.162 12.162 0 0 0-3.95 1.083c-2.183 1.02-5.67 2.896-6.677 5.01h-9.127M20.543 13.68v10.603m-5.398-5.373H26.15" stroke="#0B8E42" stroke-width="3" stroke-linecap="round" stroke-linejoin="round"/><path d="M40.048 17.427h-3.562v2.924h3.562v-2.924zm7.424 0h-3.561v2.924h3.561v-2.924zm9.006 3.799a2.334 2.334 0 1 0 0-4.668 2.334 2.334 0 0 0 0 4.668zm13.32 0a2.334 2.334 0 1 0 0-4.668 2.334 2.334 0 0 0 0 4.668zm-6.678-6.649a2.334 2.334 0 1 0 0-4.668 2.334 2.334 0 0 0 0 4.668zm0 13.32a2.334 2.334 0 1 0 0-4.668 2.334 2.334 0 0 0 0 4.668z" fill="#0B8E42"/></svg>
